X:1
T:HWV56N19Y1741 - Soprano - Then shall the eyes of the blind be opened
T:Handel, George F. 
T:Jennens, Charles 
T: Number 19: Soprano recitativo secco in G Major, Messiah, HWV 56, 1741 More Handel at http://handel.ejmaurath.com/ 
T:Sequenced by Edward James Maurath
Z:Sequenced by Edward James Maurath
%%score 1 2 { 3 4 }
L:1/8
Q:1/4=72
M:4/4
K:G
V:1 alto1 nm="Soprano" snm="SOP"
V:2 bass nm="Cello" snm="VCL"
V:3 treble nm="Hpsi RH"
V:4 bass nm="Hpsi LH"
V:1
"^72" z GGA B2 Bc | d2 z e cc z2 | z2 GG c2 cd | e2 z =f fc z =F | A2 AB ^c2 ee/=f/ | d4 z2 d=f | %6
 d2 dA _B2 z d | A3 z z4 |] %8
V:2
"_Hidden continuo realization\nby Edward James Maurath" B,,8 | B,,4 E,4 | E,8 | _B,4 A,4 | %4
 A,4 G,4 | =F,8 | =F,4 G,4 | z2 z A,2 D,3 |] %8
V:3
 [DGB]8 | [B,DG]4 [G,CE]4 | [G,CE]8 | [EG]4 [=FA]4 | [C=FA]4 [EA^c]4 | [=FA]8 | [=FA]4 [DG_B]4 | %7
 z2 z [GA^c]2 [=FAd]3 |] %8
V:4
 [B,,B,]8 | [B,,G,]4 E,4 | E,8 | [_B,E]4 [A,C]4 | [A,=F]4 [G,^C]4 | [=F,D]8 | [=F,D]4 [G,_B,]4 | %7
 z2 z [A,^C]2 [D,D]3 |] %8

